grails-app/assets/images/icon-live_help.svg

<svg xmlns="http://www.w3.org/2000/svg" width="24" height="24" viewBox="0 0 24 24"><path fill="none" d="M0 0h24v24H0V0z"/><path d="M19 2H5c-1.11 0-2 .9-2 2v14c0 1.1.89 2 2 2h4l3 3 3-3h4c1.1 0 2-.9 2-2V4c0-1.1-.9-2-2-2zm0 16h-4.83l-.59.59L12 20.17l-1.59-1.59-.58-.58H5V4h14v14zm-8-3h2v2h-2zm1-8c1.1 0 2 .9 2 2 0 2-3 1.75-3 5h2c0-2.25 3-2.5 3-5 0-2.21-1.79-4-4-4S8 6.79 8 9h2c0-1.1.9-2 2-2z"/></svg>

<?xml version="1.0" encoding="UTF-8"?>
<svg width="18px" height="21px" viewBox="0 0 18 21" version="1.1" xmlns="http://www.w3.org/2000/svg" xmlns:xlink="http://www.w3.org/1999/xlink">
    <!-- Generator: Sketch 55.2 (78181) - https://sketchapp.com -->
    <title>Shape</title>
    <desc>Created with Sketch.</desc>
    <g id="Page-1" stroke="none" stroke-width="1" fill="none" fill-rule="evenodd">
        <g id="icon-live_help" transform="translate(-3.000000, -2.000000)" fill="#2C3E50" fill-rule="nonzero">
            <path d="M19,2 L5,2 C3.89,2 3,2.9 3,4 L3,18 C3,19.1 3.89,20 5,20 L9,20 L12,23 L15,20 L19,20 C20.1,20 21,19.1 21,18 L21,4 C21,2.9 20.1,2 19,2 Z M19,18 L14.17,18 L13.58,18.59 L12,20.17 L10.41,18.58 L9.83,18 L5,18 L5,4 L19,4 L19,18 Z M11,15 L13,15 L13,17 L11,17 L11,15 Z M12,7 C13.1,7 14,7.9 14,9 C14,11 11,10.75 11,14 L13,14 C13,11.75 16,11.5 16,9 C16,6.79 14.21,5 12,5 C9.79,5 8,6.79 8,9 L10,9 C10,7.9 10.9,7 12,7 Z" id="Shape"></path>
        </g>
    </g>
</svg>
